symbols/web/summarize/materialsymbolssharp/summarize_wght300fill1_48px.svg

<svg xmlns="http://www.w3.org/2000/svg" height="48" width="48"><path d="M15.6 17.05q.55 0 1-.45.45-.45.45-1 0-.6-.45-1.025-.45-.425-1-.425-.6 0-1.025.425-.425.425-.425 1.025 0 .55.425 1 .425.45 1.025.45Zm0 8.4q.55 0 1-.425.45-.425.45-1.025 0-.6-.45-1.025-.45-.425-1-.425-.6 0-1.025.425-.425.425-.425 1.025 0 .6.425 1.025.425.425 1.025.425Zm0 8.4q.55 0 1-.425.45-.425.45-1.025 0-.55-.45-1-.45-.45-1-.45-.6 0-1.025.45-.425.45-.425 1 0 .6.425 1.025.425.425 1.025.425ZM7 41V7h24.65L41 16.35V41Zm23.35-23.35h8.4l-8.4-8.4Z"/></svg>

<svg xmlns="http://www.w3.org/2000/svg" height="48" width="48"><path d="M15.6 17.05Q16.15 17.05 16.6 16.6Q17.05 16.15 17.05 15.6Q17.05 15 16.6 14.575Q16.15 14.15 15.6 14.15Q15 14.15 14.575 14.575Q14.15 15 14.15 15.6Q14.15 16.15 14.575 16.6Q15 17.05 15.6 17.05ZM15.6 25.45Q16.15 25.45 16.6 25.025Q17.05 24.6 17.05 24Q17.05 23.4 16.6 22.975Q16.15 22.55 15.6 22.55Q15 22.55 14.575 22.975Q14.15 23.4 14.15 24Q14.15 24.6 14.575 25.025Q15 25.45 15.6 25.45ZM15.6 33.85Q16.15 33.85 16.6 33.425Q17.05 33 17.05 32.4Q17.05 31.85 16.6 31.4Q16.15 30.95 15.6 30.95Q15 30.95 14.575 31.4Q14.15 31.85 14.15 32.4Q14.15 33 14.575 33.425Q15 33.85 15.6 33.85ZM7 41V7H31.65L41 16.35V41ZM30.35 17.65H38.75L30.35 9.25Z"/></svg>
